symbols/web/sports_kabaddi/materialsymbolsrounded/sports_kabaddi_wght300grad200_20px.svg

<svg xmlns="http://www.w3.org/2000/svg" height="20" width="20"><path d="M13.792 3.708q-.75 0-1.23-.479-.479-.479-.479-1.229 0-.75.479-1.229.48-.479 1.23-.479t1.229.479Q15.5 1.25 15.5 2q0 .75-.479 1.229-.479.479-1.229.479ZM9.646 7.104q-.75 0-1.229-.479-.479-.479-.479-1.208 0-.75.479-1.229.479-.48 1.229-.48.75 0 1.229.48.479.479.479 1.229 0 .729-.479 1.208t-1.229.479Zm1.458 4.729q-.854-.229-1.635-.645-.781-.417-1.261-.896l-.541-.521-1.834 1.854 1.709 1.792v4.333q0 .375-.282.656-.281.282-.656.282t-.656-.282q-.281-.281-.281-.656v-3.562l-.875-.813v1.646l-3.063 3.041q-.291.292-.646.292-.354 0-.645-.312-.334-.313-.323-.667.01-.354.323-.667l2.437-2.437-.917-2.396q-.187-.542-.031-1.052.156-.511.469-.823l2.812-2.792q.271-.27.594-.396.323-.124.698-.124.354 0 .677.124.323.126.573.396l1.688 1.688q.458.437.968.677.511.239 1.011.385.333.084.552.354.219.271.219.584 0 .458-.344.739-.344.282-.74.198ZM17.312 18l-1.291-5.521-1.709 1.354v3.917q0 .375-.281.656-.281.282-.656.282t-.656-.282q-.281-.281-.281-.656v-5.104l1.791-1.667-.458-2.687q-.292.312-.583.552-.292.239-.626.344-.854-.042-1.479-.25-.625-.209-.937-.584.687-.166 1.344-.646.656-.479 1.218-1.333l.875-1.333q.375-.604 1.032-.813.656-.208 1.281.083l3.687 1.542q.292.104.479.386.188.281.188.614v2.458q0 .376-.281.657t-.657.281q-.374 0-.656-.281-.281-.281-.281-.657V7.354l-1.333-.479 2.125 10.542q.104.521-.198.895-.302.376-.844.376-.271 0-.51-.209-.24-.208-.303-.479Z"/></svg>

<svg xmlns="http://www.w3.org/2000/svg" height="20" width="20"><path d="M13.792 3.708Q13.042 3.708 12.562 3.229Q12.083 2.75 12.083 2Q12.083 1.25 12.562 0.771Q13.042 0.292 13.792 0.292Q14.542 0.292 15.021 0.771Q15.5 1.25 15.5 2Q15.5 2.75 15.021 3.229Q14.542 3.708 13.792 3.708ZM9.646 7.104Q8.896 7.104 8.417 6.625Q7.938 6.146 7.938 5.417Q7.938 4.667 8.417 4.188Q8.896 3.708 9.646 3.708Q10.396 3.708 10.875 4.188Q11.354 4.667 11.354 5.417Q11.354 6.146 10.875 6.625Q10.396 7.104 9.646 7.104ZM11.104 11.833Q10.25 11.604 9.469 11.188Q8.688 10.771 8.208 10.292L7.667 9.771L5.833 11.625L7.542 13.417V17.75Q7.542 18.125 7.26 18.406Q6.979 18.688 6.604 18.688Q6.229 18.688 5.948 18.406Q5.667 18.125 5.667 17.75V14.188L4.792 13.375V15.021L1.729 18.062Q1.438 18.354 1.083 18.354Q0.729 18.354 0.438 18.042Q0.104 17.729 0.115 17.375Q0.125 17.021 0.438 16.708L2.875 14.271L1.958 11.875Q1.771 11.333 1.927 10.823Q2.083 10.312 2.396 10L5.208 7.208Q5.479 6.938 5.802 6.812Q6.125 6.688 6.5 6.688Q6.854 6.688 7.177 6.812Q7.5 6.938 7.75 7.208L9.438 8.896Q9.896 9.333 10.406 9.573Q10.917 9.812 11.417 9.958Q11.75 10.042 11.969 10.312Q12.188 10.583 12.188 10.896Q12.188 11.354 11.844 11.635Q11.5 11.917 11.104 11.833ZM17.312 18 16.021 12.479 14.312 13.833V17.75Q14.312 18.125 14.031 18.406Q13.75 18.688 13.375 18.688Q13 18.688 12.719 18.406Q12.438 18.125 12.438 17.75V12.646L14.229 10.979L13.771 8.292Q13.479 8.604 13.188 8.844Q12.896 9.083 12.562 9.188Q11.708 9.146 11.083 8.938Q10.458 8.729 10.146 8.354Q10.833 8.188 11.49 7.708Q12.146 7.229 12.708 6.375L13.583 5.042Q13.958 4.438 14.615 4.229Q15.271 4.021 15.896 4.312L19.583 5.854Q19.875 5.958 20.062 6.24Q20.25 6.521 20.25 6.854V9.312Q20.25 9.688 19.969 9.969Q19.688 10.25 19.312 10.25Q18.938 10.25 18.656 9.969Q18.375 9.688 18.375 9.312V7.354L17.042 6.875L19.167 17.417Q19.271 17.938 18.969 18.312Q18.667 18.688 18.125 18.688Q17.854 18.688 17.615 18.479Q17.375 18.271 17.312 18Z"/></svg>
